X:1
T:12 Gesänge, Op.1
T:O säh' ich auf der Haide dort
T:12 Gesänge, Op.1
T:5. "O säh' ich auf der Haide dort" "Oh wert thou in the angry storm" 
T:Robert Franz
T:Robert Burns (German text: Ferdinand Freiligrath) 
T:OpenScore (CC0)
T:OpenScore (CC0)
T:OpenScore (CC0)
C:Robert Franz
Z:Robert Burns
Z:OpenScore (CC0)
%%score ( 1 2 ) { 3 | 4 }
L:1/8
Q:1/4=125
M:4/4
K:Eb
V:1 treble nm="Singstimme\nVoice"
V:2 treble 
V:3 treble nm="Pianoforte"
V:4 bass 
V:1
"^Allegro molto agitato" z2 | z8 | z4 z2!mf! G2 | (G2 c2) c2 c2 | (c3 F) F2 A2 |"^cresc." G4 G4 | %6
w: ||O|säh' ich auf der|Hai- de dort im|Stur- me|
w: ||Oh|wert thou in the|an- gry storm and|I could|
 d4 z2!f! e2 |!>(! f6!>)! c2 | d4 z4 | z8 | z4 z2!mf! G2 | (G2 c2) c2 c2 | (c3 F) F2 A2 | G4 c4 | %14
w: Dich, im|Stur- me|Dich,||mit|mei- nem Man- tel|vor dem  Sturm be-|schützt' ich|
w: see, and|I could|see,||I'd|fold thee in my|man- tle warm and|shel- ter|
 B4"^cresc." z2 B2 | c4 f4 | B4 z4 | z4 z2!mf! B2 | e2 B2 B2 c2 | _d3 d"^cresc." d2 z d | _d4 d4 | %21
w: Dich, be-|schützt' ich|Dich!|O|wär' mit sei- nen|Stür- men Dir das|Un- glück|
w: thee, and|shel- ter|thee!|And|should life's storms too|bit- ter- ly a-|round thee|
!f! c4 z2 c2 | f6 e2 | =d8 | z8 | z8 | G2 c c c2 c2 | (c3 F) F2 A2 | G4 c4 | B4 z2 B2 | c4 f4 | %31
w: nah' das|Un- glück|nah',|||dann wär' dies Herz dein|Zu- fluchts- ort; gern|teilt' ich|ja, gern|teilt' ich|
w: fall, a-|round thee|fall,|||this bo- som  should thy|re- fuge be, to|share them|all, to|share them|
 e4 z4 | z8 | z4 z2!mf! G2 | (G2 c2) c2 c2 | (c3 F) F2 A A | G4 G4 | x6 d e |!f! f6 c2 | d4 z4 | %40
w: ja!||O,|wär' ich in der|Wü- * ste, * so|braun und||braun und|dürr,|
w: all!||Oh,|were I on a|de- sert  shore, * *|bleak and||bleak and|bare,|
 z8 | z4 z2!mf! G2 | (G2 c2) c2 c2 | (c3 F) F2 A2 | G4 c4 | B4 z2 B2 | c4 f4 | B4 z4 | %48
w: |zum|Pa- ra- die- se|wür- de sie, wärst|du bei|mir, wärst|du bei|mir!|
w: |a|Pa- ra- dise 'twould|be and more, if|thou wert|there, if|thou wert|there!|
 z4 z2!mf! B2 | B2 B2!>(! e3 B!>)! | c4 z2 c2 |"^cresc." c2 c2!>(! f3!>)! c |!f! d8 | %53
w: Und|wär' ein Kö- nig|ich, und|wär' die Er- de|mein,|
w: And|if I were a|king, and|all the earth were|mine,|
!mf! e2 d d c2 B2 | A3 G F2 A2 | G4 c4 | B4 z2[Q:1/4=115]"^T" B2 | %57
w: du wärst in mei- ner|Kro- ne doch der|schön- ste|Stein, der|
w: my je- wel thou, of|cost- liest worth, would'st|bright- est|shine, would'st|
[Q:1/4=110]"^T" c4[Q:1/4=100]"^T" f4 |[Q:1/4=90]"^T" e4 !fermata!z2 |] %59
w: schön- ste|Stein.|
w: bright- est|shine.|
V:2
 x2 | x8 | x8 | x8 | x8 | x8 | x8 | x8 | x8 | x8 | x8 | x8 | x8 | x8 | x8 | x8 | x8 | x8 | x8 | %19
w: |||||||||||||||||||
w: |||||||||||||||||||
 x8 | x8 | x8 | x8 | x8 | x8 | x8 | x8 | x8 | x8 | x8 | x8 | x8 | x8 | x8 | x8 | x6 A2 | x8 | %37
w: ||||||||||||||||die||
w: ||||||||||||||||so||
 d4 z2 de | x8 | x8 | x8 | x8 | x8 | x8 | x8 | x8 | x8 | x8 | x8 | x8 | x8 | x8 | x8 | x8 | x8 | %55
w: dürr, die so||||||||||||||||||
w: bare, so *||||||||||||||||||
 x8 | x8 | x8 | x6 |] %59
w: ||||
w: ||||
V:3
!mf! (3(GEG,) |!<(! (3(GEG,) (3(GEG,)!<)! (3(GEG,) (3(GEG,) | %2
!>(! (3(GDA,) (3(FDA,) (3(E!>)!CG,) (3(GEG,) |!<(! (3(ECG,) (3(ECG,)!<)! (3(ECG,) (3(ECG,) | %4
!>(! (3(FCF,) (3(FCF,) (3(F!>)!CF,) (3(FCF,) |!f! (3(ECG,) (3(ECG,) (3(D=B,G,) (3(DB,G,) | %6
 (3(FCF,) (3(FCF,) (3(FCF,) (3(FCF,) | (3(FCA,) (3(F!>(!CA,) (3(FCA,) (3(FC!>)!A,) | %8
 (3(DCA,) (3(DCA,) (3(DCA,)!p! (3(DCA,) | (3(DC=A,) (3(DC^F,) (3(DCA,) (3(DCF,) | %10
 (3(D=B,!<(!G,) (3(GEG,) (3(GEG,) (3(G!<)!EG,) |!mf!!<(! (3(ECG,) (3(ECG,) (3(ECG,)!<)! (3(ECG,) | %12
!>(! (3(FCF,) (3(FCF,)!>)! (3(FCF,) (3(FCF,) |!<(! (3(GEB,) (3(GEB,) (3(AE!<)!C) (3(AEC) | %14
 (3(GE!>(!B,) (3(GEB,) (3(G!>)!EB,) (3(GEB,) |!<(! (3(AEC) (3(AEC)!<)! (3(cAD) (3(cAD) | %16
!>(! (3(GEB,) (3(GEB,)!>)! (3(GEB,) (3(GEB,) |!<(! (3(GDB,) (3(ADC)!<)!!>(! (3(GDB,) (3(FD!>)!A,) | %18
!mf! (3(EB,G,) (3(EB,G,) (3(EB,G,) (3(EB,G,) | (3(_DB,G,) (3(DB,G,)"_cresc." (3(DB,G,) (3(DB,G,) | %20
!<(! (3(_DB,F,) (3(DB,F,)!<)! (3(DB,=E,) (3(DB,E,) |!f! (3(CB,=E,) (3(CB,E,) (3(CB,E,) (3(CB,E,) | %22
 (3(FCF,) (3(FCF,) (3(FCF,) (3(FCF,) | (3(=DC^F,)!>(! (3(DCF,) (3(DCF,)!>)! (3(DCF,) | %24
!p! (3(DC=A,) (3(DC^F,) (3(DCA,) (3(DCF,) | (3(D=B,!<(!G,) (3(GEG,) (3(GEG,)!<)! (3(GEG,) | %26
!mf! (3(ECG,)!<(! (3(ECG,) (3(ECG,)!<)! (3(ECG,) | (3(FC!>(!F,) (3(FCF,) (3(FCF,)!>)! (3(FCF,) | %28
!<(! ([B,EG]4 [CEA]4)!<)! |!>(! (3(GEB,) (3(GEB,)!>)! .B2 [B,EG]2 |!<(! ([CEA]4 [DAc]4!<)! | %31
!>(! [B,GB]4) z2!>)!!mf! (3(GEG,) | (3(GE!<(!G,) (3(GEG,) (3(GEG,) (3(GEG,)!<)! | %33
 (3(GD!>(!A,) (3(FDA,) (3(ECG,)!>)! (3(GEG,) |!mf!!<(! (3(ECG,) (3(ECG,) (3(ECG,) (3(E!<)!CG,) | %35
 (3(FC!>(!F,) (3(FCF,) (3(FCF,)!>)! (3(FCF,) |"_cresc." (3(ECG,) (3(ECG,) (3(D=B,G,) (3(DB,G,) | %37
 (3(FCF,) (3(FCF,) (3(FCF,) (3(FCF,) | (3(FCA,) (3(FCA,)!>(! (3(FCA,) (3(ECA,)!>)! | %39
 (3(DCA,) (3(D"_dim."CA,) (3(DCA,) (3(DCA,) |!p! (3(DC=A,) (3(DC^F,) (3(DCA,) (3(DCF,) | %41
 (3(D=B,!<(!G,) (3(GEG,) (3(GEG,) (3(G!<)!EG,) |!mf!!<(! (3(ECG,) (3(ECG,) (3(ECG,) (3(E!<)!CG,) | %43
 (3(FC!>(!F,) (3(FCF,) (3(FCF,)!>)! (3(FCF,) |!<(! (3(GEB,) (3(GEB,) (3(AEC) (3(AE!<)!C) | %45
!>(! (3(GEB,) (3(GEB,) (3(GE!>)!B,) (3(GEB,) |!<(! (3(AEC) (3(AEC) (3(cAD) (3(cAD)!<)! | %47
!>(! (3(GEB,) (3(GEB,) (3(GEB,)!>)! (3(GEB,) |!<(! (3(GDB,) (3(ADC)!<)!!>(! (3(GDB,) (3(FDA,)!>)! | %49
 (3(EB,G,) (3(EB,G,)"_cresc." (3(EB,G,) (3(EB,G,) | %50
 (3(CB,=E,) (3(CB,E,) (3(CB,E,)"_cresc." (3(CB,E,) | %51
 (3(C[I:staff +1]F,C,)[I:staff -1] (3(C[I:staff +1]F,C,)[I:staff -1] (3(FCF,) (3(FCF,) | %52
!f! (3(D=B,G,) (3(DB,G,) (3(DB,G,) (3(GEG,) |!mf!!<(! (3(ECG,) (3(ECG,) (3(ECG,) (3(ECG,)!<)! | %54
 (3(FC!>(!F,) (3(FCF,) (3(FCF,)!>)! (3(FCF,) |!<(! ([B,EG]4!<)! [CEA]4) | %56
 (3(GEB,)!>(! (3(GEB,)!>)! .B2 [B,EG]2 |!<(! ([CEA]4!<)!!>(! [DAc]4 | [B,GB]4)!>)! !fermata!z2 |] %59
V:4
 E,,2 | (=B,,,2 C,,2 D,,2 E,,2) | (F,,2 D,,2 G,,2) (3(G,,,=A,,,=B,,,) | (C,,2 D,,2 E,,2 C,,2) | %4
 (A,,2 G,,2 A,,2 F,,2) |!ped! (G,,2 G,2)!ped-up!!ped! (G,,2 G,2)!ped-up! | %6
!ped! (A,,2 F,2) (A,,2 F,2)!ped-up! |!ped! (D,,6 E,,2!ped-up! |!ped! F,,4) z2 F,,2!ped-up! | %9
!ped! .^F,,2 .D,,2 .F,,2 .D,,2!ped-up! | .G,,2 (G,,,2 =A,,,2 =B,,,2) | (C,,2 D,,2 E,,2 C,,2) | %12
 (A,,2 G,,2 A,,2 F,,2) |!ped! (B,,2 B,2)!ped-up!!ped! (B,,2 B,2)!ped-up! | %14
!ped! (B,,2 E,2 G,2) z2!ped-up! | (B,,2 B,2) (B,,2 B,2) |!ped! (B,,2 E,2 G,2) z2!ped-up! | %17
 (B,,,2 B,,2) (B,,,2 B,,2) |!ped! E,,4 E,,4!ped-up! |!ped! =E,,4 E,,4!ped-up! | %20
!ped! F,,4!ped-up!!ped! _G,,4!ped-up! |!ped! [C,,=G,,]4 z2 (C,,2!ped-up! | %22
!ped! A,,4) A,,4!ped-up! |!ped! [=D,,=A,,]4 z2 D,,2!ped-up! | %24
!ped! .^F,,2 .D,,2 .F,,2 .D,,2!ped-up! | .G,,2 (G,,,2 =A,,,2 =B,,,2) | (C,,2 D,,2 E,,2 C,,2) | %27
 (A,,2 G,,2 A,,2 F,,2) |!ped! B,,4!ped-up!!ped! B,,4!ped-up! |!ped! (B,,2 E,2 G,2)!ped-up! B,,2 | %30
!ped! B,,,4!ped-up!!ped! B,,,4!ped-up! |!ped! E,,4 z2!ped-up! E,,2 | (=B,,,2 C,,2 D,,2 E,,2) | %33
 (F,,2 D,,2 G,,2) (3(G,,,=A,,,=B,,,) | (C,,2 D,,2 E,,2 C,,2) | (A,,2 G,,2 A,,2 F,,2) | %36
!ped! (G,,2 G,2)!ped-up!!ped! (G,,2 G,2)!ped-up! |!ped! (A,,2 F,2) (A,,2 F,2)!ped-up! | %38
!ped! (D,,6 E,,2!ped-up! |!ped! F,,4) z2 F,,2!ped-up! |!ped! .^F,,2 .D,,2 .F,,2 .D,,2!ped-up! | %41
 .G,,2 (G,,,2 =A,,,2 =B,,,2) | (C,,2 D,,2 E,,2 C,,2) | (A,,2 G,,2 A,,2 F,,2) | %44
!ped! (B,,2 B,2)!ped-up!!ped! (B,,2 B,2)!ped-up! |!ped! (B,,2 E,2 G,2) z2!ped-up! | %46
!ped! (B,,2 B,2)!ped-up!!ped! (B,,2 B,2)!ped-up! |!ped! (B,,2 E,2 G,2) z2!ped-up! | %48
 (B,,,2 B,,2) (B,,,2 B,,2) | E,,4 E,,4 |!ped! [C,,G,,]4 z2 C,,2!ped-up! | %51
!ped! !>!A,,4 !>!A,,4!ped-up! |!ped! G,,4 z2!ped-up! (3(G,,,=A,,,=B,,,) | (C,,2 D,,2 E,,2 C,,2) | %54
 (F,,2 G,,2 A,,2 F,,2) |!ped! B,,4!ped-up!!ped! B,,4!ped-up! |!ped! (B,,2 E,2 G,2)!ped-up! B,,2 | %57
!ped! B,,,4!ped-up!!ped! B,,,4!ped-up! |!ped! E,,4!ped-up! !fermata!z2 |] %59

